X:2169
T:Gatehouse Maid, The
O:england
R:reel
D:Planxty: After the Break
D:Irish Dance Music (ed. Reg Hall)
D:Joe Flanagan 1925
M:C|
K:Ador
A2 (3Bcd edBA|~G3A GED2|A2 (3Bcd edBd|1 egdB BAdB:|2 egdB BAA2||
a2ea agef|g2dg egdg|a2ea agab|gedB BAA2|
~a3b agef|~g3a g2ge|dega (3bag ab|gedB BAAG||
